svg/OSM-icons/railway #f8ddf7 °373737 °ffffff !label=enrailway,deEisenbahn/27009;railway=station;!name=;!uic_ref=;!bench=;feature_group=public_transport;!label=enrailway station,deBahnhof.svg

<?xml version="1.0" encoding="UTF-8" standalone="no"?>
<!-- Created with Inkscape (http://www.inkscape.org/) -->
<svg
   xmlns:dc="http://purl.org/dc/elements/1.1/"
   xmlns:cc="http://creativecommons.org/ns#"
   xmlns:rdf="http://www.w3.org/1999/02/22-rdf-syntax-ns#"
   xmlns:svg="http://www.w3.org/2000/svg"
   xmlns="http://www.w3.org/2000/svg"
   xmlns:sodipodi="http://sodipodi.sourceforge.net/DTD/sodipodi-0.dtd"
   xmlns:inkscape="http://www.inkscape.org/namespaces/inkscape"
   version="1.0"
   width="580"
   height="580"
   id="svg2"
   sodipodi:version="0.32"
   inkscape:version="0.46"
   sodipodi:docname="train_station2.svg"
   inkscape:output_extension="org.inkscape.output.svg.inkscape">
  <defs
     id="defs22">
    <inkscape:perspective
       sodipodi:type="inkscape:persp3d"
       inkscape:vp_x="0 : 290 : 1"
       inkscape:vp_y="0 : 1000 : 0"
       inkscape:vp_z="580 : 290 : 1"
       inkscape:persp3d-origin="290 : 193.33333 : 1"
       id="perspective24" />
    <marker
       viewBox="0 0 10 10"
       refY="5"
       refX="10"
       orient="auto"
       markerWidth="4"
       markerUnits="strokeWidth"
       markerHeight="3"
       id="ArrowStart">
      <path
         id="path3568"
         d="M 10 0 L 0 5 L 10 10 z" />
    </marker>
    <marker
       viewBox="0 0 10 10"
       refY="5"
       refX="0"
       orient="auto"
       markerWidth="4"
       markerUnits="strokeWidth"
       markerHeight="3"
       id="ArrowEnd">
      <path
         id="path3565"
         d="M 0 0 L 10 5 L 0 10 z" />
    </marker>
    <inkscape:perspective
       id="perspective2683"
       inkscape:persp3d-origin="306.082 : 204.39034 : 1"
       inkscape:vp_z="612.164 : 306.58551 : 1"
       inkscape:vp_y="0 : 1000 : 0"
       inkscape:vp_x="0 : 306.58551 : 1"
       sodipodi:type="inkscape:persp3d" />
  </defs>
  <metadata
     id="metadata10">
    <rdf:RDF>
      <cc:Work
         rdf:about="">
        <dc:format>image/svg+xml</dc:format>
        <dc:type
           rdf:resource="http://purl.org/dc/dcmitype/StillImage" />
			  <cc:license
           rdf:resource="http://web.resource.org/cc/PublicDomain" />
        <dc:language>en</dc:language>
      </cc:Work>
    </rdf:RDF>
  </metadata>
  <sodipodi:namedview
     inkscape:window-height="1005"
     inkscape:window-width="1280"
     inkscape:pageshadow="2"
     inkscape:pageopacity="0.0"
     guidetolerance="10.0"
     gridtolerance="10.0"
     objecttolerance="10.0"
     borderopacity="1.0"
     bordercolor="#666666"
     pagecolor="#ffffff"
     id="base"
     showgrid="false"
     inkscape:zoom="0.70710678"
     inkscape:cx="615.26172"
     inkscape:cy="415.25176"
     inkscape:window-x="0"
     inkscape:window-y="0"
     inkscape:current-layer="svg2" />
  <g
     id="g1327">
    <path
       d="M 66.275,1.768 C 24.94,1.768 1.704,23.139 1.704,66.804 L 1.704,516.927 C 1.704,557.771 22.598,579.156 63.896,579.156 L 515.92,579.156 C 557.227,579.156 578.149,558.84 578.149,516.927 L 578.149,66.804 C 578.149,24.203 557.227,1.768 514.627,1.768 C 514.624,1.768 66.133,1.625 66.275,1.768 z"
       style="fill:#111111;stroke:#eeeeee;stroke-width:3.40799999"
       id="path1329" />
  </g>
  <g
     id="g2319"
     transform="translate(879.29125,36.805119)">
    <path
       id="path2323"
       style="fill:#ffffff;stroke:none"
       d="" />
  </g>
  <g
     id="g2325"
     transform="translate(879.29125,36.805119)">
    <path
       id="path2329"
       style="fill:#ffffff;stroke:none"
       d="" />
  </g>
  <g
     id="g3574"
     transform="matrix(1.2317123,0,0,1.2317123,-81.360132,-113.23274)">
    <g
       id="g3576">
      <path
         style="fill:#ffffff;stroke:none"
         d="M 295.5625,77.1875 L 213.03125,77.25 C 174.59259,77.249989 146.3125,108.11801 146.3125,141.75 L 146.3125,379.96875 C 146.31253,412.55139 171.80358,439.27577 197.4375,443.40625 L 120.5625,558.71875 L 164.9375,558.71875 L 219.90625,478.125 L 295.1875,478.125 L 295.25,478.125 L 295.3125,478.125 L 370.59375,478.125 L 425.5625,558.71875 L 469.9375,558.71875 L 393.0625,443.40625 C 418.69638,439.27575 444.21875,412.55141 444.21875,379.96875 L 444.21875,141.75 C 444.21871,108.11804 415.90738,77.25 377.46875,77.25 L 295.5625,77.1875 z M 262.875,91 L 295.1875,91 L 295.25,91 L 295.3125,91 L 327.625,91 C 333.47317,91 338.5625,95.90183 338.5625,101.75 L 338.5625,120.6875 C 338.5625,126.53567 333.75166,131.5625 327.625,131.5625 L 295.3125,131.5625 L 295.25,131.5625 L 295.1875,131.5625 L 262.875,131.5625 C 256.74835,131.5625 251.9375,126.53567 251.9375,120.6875 L 251.9375,101.75 C 251.9375,95.90183 257.02682,91.000003 262.875,91 z M 215.25,144.40625 L 295.1875,144.40625 L 295.3125,144.40625 L 375.25,144.40625 C 396.97176,144.40626 408.50001,159.95825 408.5,177.78125 L 408.5,220.65625 C 408.66931,241.26409 393.62996,253.90625 375.25,253.90625 L 295.3125,253.90625 L 295.25,253.90625 L 295.1875,253.90625 L 215.25,253.90625 C 196.87003,253.90625 181.83068,241.26409 182,220.65625 L 182,177.78125 C 181.99999,159.95825 193.52822,144.40625 215.25,144.40625 z M 211.625,350.15625 C 227.78266,350.15622 240.90625,363.24859 240.90625,379.40625 C 240.90625,395.56275 227.78266,408.65625 211.625,408.65625 C 195.46731,408.65623 182.375,395.56279 182.375,379.40625 C 182.37496,363.24855 195.46734,350.15625 211.625,350.15625 z M 378.1875,350.15625 C 394.34514,350.15623 407.4375,363.24858 407.4375,379.40625 C 407.43748,395.56277 394.34517,408.65626 378.1875,408.65625 C 362.02982,408.65623 348.93749,395.56278 348.9375,379.40625 C 348.93748,363.24857 362.02985,350.15625 378.1875,350.15625 z"
         transform="matrix(0.8977168,0,0,0.8977168,40.710583,46.777129)"
         id="path3578" />
    </g>
    <g
       id="g3584" />
  </g>
</svg>

<svg xmlns="http://www.w3.org/2000/svg" viewBox="0 0 580 580"><path d="m66.28 1.768c-41.34 0-64.57 21.371-64.57 65.04v450.12c0 40.844 20.894 62.23 62.19 62.23h452.02c41.31 0 62.23-20.316 62.23-62.23v-450.12c0-42.601-20.922-65.04-63.52-65.04-.003 0-448.49-.143-448.35 0z" fill="#111" stroke="#eee" stroke-width="3.408"/><path d="m295.56 77.19l-82.53.063c-38.439 0-66.72 30.868-66.72 64.5v238.22c0 32.583 25.491 59.31 51.12 63.44l-76.875 115.31h44.37l54.969-80.59h75.28.063.063 75.28l54.969 80.59h44.37l-76.875-115.31c25.634-4.13 51.16-30.855 51.16-63.44v-238.22c0-33.632-28.311-64.5-66.75-64.5l-81.906-.063m-32.688 13.813h32.31.063.063 32.31c5.848 0 10.938 4.902 10.938 10.75v18.938c0 5.848-4.811 10.875-10.938 10.875h-32.31-.063-.063-32.31c-6.127 0-10.938-5.03-10.938-10.875v-18.938c0-5.848 5.089-10.75 10.938-10.75m-47.625 53.41h79.938.125 79.938c21.722 0 33.25 15.552 33.25 33.375v42.875c.169 20.608-14.87 33.25-33.25 33.25h-79.938-.063-.063-79.938c-18.38 0-33.419-12.642-33.25-33.25v-42.875c0-17.823 11.528-33.375 33.25-33.375m-3.625 205.75c16.16 0 29.28 13.09 29.28 29.25 0 16.16-13.12 29.25-29.28 29.25-16.16 0-29.25-13.09-29.25-29.25 0-16.16 13.09-29.25 29.25-29.25m166.56 0c16.16 0 29.25 13.09 29.25 29.25 0 16.16-13.09 29.25-29.25 29.25-16.16 0-29.25-13.09-29.25-29.25 0-16.16 13.09-29.25 29.25-29.25" transform="matrix(1.10573 0 0 1.10573-31.22-55.617)" fill="#fff"/></svg>
